resources/haticons/SVG/zoom-in11.svg

<!-- Generated by IcoMoon.io -->
<svg version="1.1" xmlns="http://www.w3.org/2000/svg" width="24" height="24" viewBox="0 0 24 24">
<title>zoom-in11</title>
<path d="M17.1 15.075h-1.125l-0.375-0.375c1.35-1.575 2.175-3.6 2.175-5.85 0.075-4.875-3.9-8.85-8.85-8.85s-8.925 3.975-8.925 8.925c0 4.95 3.975 8.925 8.925 8.925 2.25 0 4.275-0.825 5.85-2.175l0.375 0.375v1.050l6.9 6.9 2.025-2.025-6.975-6.9zM9 16.5c-4.125 0-7.5-3.375-7.5-7.5s3.375-7.5 7.5-7.5 7.5 3.375 7.5 7.5-3.375 7.5-7.5 7.5zM9.75 4.5h-1.5v3.75h-3.75v1.5h3.75v3.75h1.5v-3.75h3.75v-1.5h-3.75v-3.75z"></path>
</svg>

<svg xmlns="http://www.w3.org/2000/svg" width="24" height="24"><path d="M17.1 15.075h-1.125L15.6 14.7a8.931 8.931 0 0 0 2.175-5.85C17.85 3.975 13.875 0 8.925 0S0 3.975 0 8.925a8.898 8.898 0 0 0 8.925 8.925c2.25 0 4.275-.825 5.85-2.175l.375.375v1.05l6.9 6.9 2.025-2.025-6.975-6.9zM9 16.5c-4.125 0-7.5-3.375-7.5-7.5S4.875 1.5 9 1.5s7.5 3.375 7.5 7.5-3.375 7.5-7.5 7.5zm.75-12h-1.5v3.75H4.5v1.5h3.75v3.75h1.5V9.75h3.75v-1.5H9.75V4.5z"/></svg>
